JoJozge/DDPG_Mujoco/ur5e_DDPG_trajectory_planning_template/smooth_plt/joint_path_table_smooth_1586.csv
time,shoulder link,upper arm link,forearm link,wrist1 link,wrist2 link,wrist3 link,total_reward
0.0,-0.0005124332527061061,0.014909627791255983,0.004060361993882302,0.00012370225049388806,-1.1967880324300545e-05,8.32375115109478e-05,962.3148215008274
1.0,0.0023808868685434503,0.016100097543483155,0.003633663896277753,-0.009489296324437402,0.01175551339231037,0.008644517143198773,962.3148215008274
2.0,0.0005963458290679742,0.012332759650161163,-0.002551019422568973,-0.02268518125724937,0.02416932268085727,0.022198292065653786,962.3148215008274
3.0,-0.005955092701004244,0.004128731903750577,-0.01322435737192282,-0.03252829841605088,0.03447968326516221,0.03690480722613254,962.3148215008274
4.0,-0.01588990479530156,-0.0071498749406037525,-0.02617652111645538,-0.04256203431431251,0.04281776817342289,0.05116372355939272,962.3148215008274
5.0,-0.028090102121657575,-0.020240077394758166,-0.03883974109835719,-0.05324519806119744,0.047814848337042325,0.06571245294184727,962.3148215008274
6.0,-0.04097891510237684,-0.03387448634816113,-0.051974807087661876,-0.06254888772670521,0.04810385443922748,0.08018954978117443,962.3148215008274
7.0,-0.05360968303009675,-0.04719347716016744,-0.06595029692899068,-0.07290081829484615,0.04568608394533457,0.09563523817339374,962.3148215008274
8.0,-0.06680966184933473,-0.05775915290226531,-0.0800307775482985,-0.08479485396434894,0.040641813376288555,0.11157006656302791,962.3148215008274
9.0,-0.08085205111931854,-0.06560899802758062,-0.09435656179046169,-0.09804251881336207,0.033076846035089424,0.12721407805570856,962.3148215008274
10.0,-0.0946865693510681,-0.07295920199480674,-0.10914352003862356,-0.11036385327314566,0.024552903516259515,0.14327224117472823,962.3148215008274
11.0,-0.10837527699371728,-0.07901225662636067,-0.12433759233191997,-0.12289739486717179,0.01557194747956053,0.1596539246952346,962.3148215008274
12.0,-0.12185840887293303,-0.0839509196733589,-0.13969368641247057,-0.13554924197230384,0.006346894441445459,0.1761308210664449,962.3148215008274
13.0,-0.13482258531536698,-0.08799788217199228,-0.1547721350720083,-0.14871296153775068,-0.002998179817613579,0.1921818724738585,962.3148215008274
14.0,-0.14702320629875176,-0.09139202670089895,-0.16976921045704033,-0.1620655618903072,-0.012561416360357635,0.2082502767066766,962.3148215008274
15.0,-0.15889144110664524,-0.09425854169038778,-0.1846434555971811,-0.1753327068221457,-0.022460781174367818,0.22437940651109192,962.3148215008274
16.0,-0.17085817592377212,-0.09661137530989782,-0.19964572455705443,-0.18892007324171248,-0.03295072494144349,0.24079451005342656,962.3148215008274
17.0,-0.18302146933216545,-0.09842273184473561,-0.2146066353558007,-0.20294880723981443,-0.04332473028040828,0.25729303145023297,962.3148215008274
18.0,-0.1955313882507765,-0.10008928691917682,-0.2294662934443685,-0.21676791197782666,-0.05373497913039488,0.27355483123531693,962.3148215008274
19.0,-0.20841418570820983,-0.10141773296950968,-0.24437936691390647,-0.2303932191135351,-0.06414890708709024,0.2893331095329827,962.3148215008274
20.0,-0.2217648704655931,-0.10244598891591063,-0.2594599780428279,-0.24422650171083246,-0.0743207109829131,0.304874255773725,962.3148215008274
21.0,-0.23559099000301373,-0.1035738779366601,-0.27474554829810977,-0.2582817384286787,-0.08444463538459396,0.32022292706900796,962.3148215008274
22.0,-0.2498329959050496,-0.10456857227934178,-0.2899800889962975,-0.27228976764874874,-0.09517861605487538,0.3352293893592739,962.3148215008274
23.0,-0.26442396811103885,-0.10545418134076333,-0.3049672934262638,-0.28617986076212426,-0.1063097417634409,0.35036354252340995,962.3148215008274
24.0,-0.27921883035267914,-0.10637950766862611,-0.320018595399099,-0.2997077735111372,-0.11789114651382585,0.36523458904309314,962.3148215008274
25.0,-0.2941251454327241,-0.10711543232754143,-0.33519098911079853,-0.3129317665936728,-0.12981425604762734,0.38019189390411207,962.3148215008274
26.0,-0.30752519840563525,-0.10978637624616587,-0.3496277312687262,-0.3256669215272682,-0.13859337586461137,0.3952381660045801,962.3148215008274
27.0,-0.3212062301044424,-0.11238095937585245,-0.3644259865468523,-0.3383762708856455,-0.14790032129520447,0.4103793526918959,962.3148215008274
28.0,-0.3351968967593181,-0.11492123791830354,-0.3795105694823104,-0.35107331988462376,-0.15767781610720413,0.42555979870963545,962.3148215008274
29.0,-0.34941265237131164,-0.11743553974806381,-0.3947050112013385,-0.3637658026421633,-0.16797665049280303,0.44066956110236866,962.3148215008274
30.0,-0.3637698663221151,-0.11983137757901013,-0.40989748531414505,-0.37664496012940935,-0.1787390041895065,0.4557997483219474,962.3148215008274
31.0,-0.37826555218037317,-0.1219155696141992,-0.4250689403491175,-0.3897911425350118,-0.1899850730641052,0.4709392110798063,962.3148215008274
32.0,-0.3928541791534549,-0.12364907098909333,-0.44020948125265896,-0.4030867506869341,-0.20155919837397915,0.4859594766683864,962.3148215008274
33.0,-0.4074545844372203,-0.12510975132427815,-0.455324303763687,-0.4164587992582423,-0.21346312818406693,0.5010778635159293,962.3148215008274
34.0,-0.4220493503750312,-0.1262273188229217,-0.4705172561934101,-0.4297990788606712,-0.225894316024879,0.5162078931121047,962.3148215008274
35.0,-0.43664143292784363,-0.12700205794171268,-0.4858430374515134,-0.44279921713758286,-0.23858336219659965,0.5312065762141275,962.3148215008274
36.0,-0.4512832627664425,-0.12746201347855396,-0.5012611466211624,-0.45542776079358116,-0.25150781631935976,0.5459574087501938,962.3148215008274
37.0,-0.46593283174993855,-0.12758475995117374,-0.5167694384372261,-0.46765399573680216,-0.26451108049491573,0.5601734702878944,962.3148215008274
38.0,-0.48065869814520235,-0.127289252250931,-0.5323386420544389,-0.47953894298400057,-0.27762773462485363,0.5737337450245513,962.3148215008274
39.0,-0.49540731248743813,-0.12666792545513555,-0.5478980504642272,-0.4909076371718979,-0.29088525779927443,0.5867573540085248,962.3148215008274
40.0,-0.5101557863762465,-0.1258203665331529,-0.5634665750706835,-0.5016736402568633,-0.3039062947019513,0.5991254619274613,962.3148215008274
41.0,-0.5248866766382596,-0.12489743294689419,-0.5791252989565614,-0.511754558943586,-0.31676593690970534,0.6108558204577395,962.3148215008274
42.0,-0.5395990792932642,-0.12398643181020051,-0.5948554694016992,-0.5211201905847127,-0.3291735433644289,0.6222363804771782,962.3148215008274
43.0,-0.5542872562382775,-0.12318239678207274,-0.6105140386292727,-0.5297546611082086,-0.34121732616715594,0.6331528433276241,962.3148215008274
44.0,-0.5689688491422553,-0.12226601072381066,-0.6261099143642295,-0.5377999340319437,-0.35290659702903876,0.6434649737431947,962.3148215008274
45.0,-0.5836908947527115,-0.1210286799593406,-0.6415416437261227,-0.5454622443886026,-0.3644258613926327,0.6530929001706592,962.3148215008274
46.0,-0.5984246205277606,-0.11970443225397717,-0.6567817457672731,-0.552609525853791,-0.3758763256722615,0.662003219601866,962.3148215008274
47.0,-0.6131509389407338,-0.11830779115184567,-0.6719259195176771,-0.5592086725398832,-0.3872039531651444,0.6702086705667114,962.3148215008274
48.0,-0.6279467591370591,-0.11691295082791364,-0.6869963769866145,-0.5653747107217179,-0.3982959161180252,0.6777987320632944,962.3148215008274
49.0,-0.6428324006657908,-0.11545369817573992,-0.7019820670445158,-0.5712733233559534,-0.40893144154865413,0.6848736029214121,962.3148215008274
50.0,-0.6577895393084601,-0.1140632321350092,-0.7169419293979323,-0.5766445962342149,-0.4195147126842391,0.6913413668214007,962.3148215008274
51.0,-0.6728890177066411,-0.11274610348962266,-0.731803501917275,-0.5814073105698326,-0.4299278100584647,0.6972684527111791,962.3148215008274
52.0,-0.6881715383682622,-0.11134387205920784,-0.7466208770965551,-0.5855244001131751,-0.440205170541837,0.7026233053170969,962.3148215008274
53.0,-0.7036661988675011,-0.1098590155074476,-0.761181139570589,-0.5891037319768978,-0.4501134751930756,0.7073772398675392,962.3148215008274
54.0,-0.7192315473947722,-0.1083112778663613,-0.7754511538119445,-0.5923080007121376,-0.4599830885750883,0.7115287614964373,962.3148215008274
55.0,-0.7346572702752298,-0.10669727583850178,-0.7894282291010486,-0.5949621438067383,-0.46965110514736297,0.7152016174398823,962.3148215008274
56.0,-0.7497551227989867,-0.10491666505409877,-0.8030539566666005,-0.5969744103343707,-0.4790474815413642,0.7182422723484424,962.3148215008274
57.0,-0.7644646957461475,-0.1031844095101493,-0.8161714943327606,-0.5983432789527332,-0.4880464114792746,0.7207718601135605,962.3148215008274
58.0,-0.7787540253970073,-0.10160043273950037,-0.8288815411206775,-0.5990194700104713,-0.49676001830198363,0.7226561238836585,962.3148215008274
59.0,-0.7926156835704675,-0.1000196543310222,-0.8413190793608252,-0.5989773770485717,-0.5050436741971288,0.7238388526222439,962.3148215008274
60.0,-0.806175859429681,-0.09836133012732558,-0.8535072855229988,-0.5982352701623628,-0.5128681015713665,0.7245214384589442,962.3148215008274
61.0,-0.8195011573801202,-0.096778720562454,-0.8655526033143931,-0.5968938227165373,-0.5201441612620433,0.7247036388566421,962.3148215008274
62.0,-0.832688822852536,-0.0953255374202557,-0.8774997774162423,-0.5950480589395192,-0.5268918195621694,0.7242466451370727,962.3148215008274
63.0,-0.8457761032303643,-0.09391097855240702,-0.8893831601709434,-0.5926673464941604,-0.5331115840082377,0.723308890872655,962.3148215008274
64.0,-0.8587569385830558,-0.09250586702281928,-0.901150672747321,-0.5898061202154796,-0.5389965066184221,0.7218604768392737,962.3148215008274
65.0,-0.8715477204104848,-0.09114034714182792,-0.9126303002270396,-0.5863142859147353,-0.544704672070039,0.7197680992635919,962.3148215008274
66.0,-0.8839912204117435,-0.0897510723105699,-0.9236822539933426,-0.5822216213430048,-0.5502426839092253,0.7170202166282045,962.3148215008274
67.0,-0.8960094639650256,-0.08819716152952199,-0.9342024619982054,-0.5776108730513881,-0.5555124368716022,0.7136069000540608,962.3148215008274
68.0,-0.907610151137252,-0.08655706520202432,-0.9442208341277373,-0.5726024555280039,-0.5604228141419602,0.7096538281140756,962.3148215008274
69.0,-0.9187756287703016,-0.08501346449205312,-0.953884454672014,-0.567238296403541,-0.5647502906581869,0.7051416281526245,962.3148215008274
70.0,-0.9294594505573529,-0.08359392816052877,-0.9633978796068989,-0.5615751898024276,-0.5684777469611194,0.700109104877836,962.3148215008274
71.0,-0.9395951337054128,-0.0822106974675908,-0.9728100812262347,-0.5557590483304992,-0.5716261227953282,0.6945122218841266,962.3148215008274
72.0,-0.9492809727199374,-0.08079213827637184,-0.982064251002528,-0.5498613268812413,-0.5744331846611518,0.6882487321355819,962.3148215008274
73.0,-0.9586983315140941,-0.07933258454762519,-0.9911353894537931,-0.5438210187868976,-0.5768436962549212,0.6814724931680861,962.3148215008274
74.0,-0.9678981800224608,-0.07782701849988774,-0.9998824328818949,-0.5375513219481711,-0.5790445583478379,0.6740786079725983,962.3148215008274
75.0,-0.9768716007925219,-0.07629449926386093,-1.008344740126721,-0.5311643801814199,-0.5811911511879584,0.6660241189818912,962.3148215008274
76.0,-0.9856817761704992,-0.0748939574190797,-1.0163914587269733,-0.5244571379548038,-0.5828907457564091,0.6572780489846841,962.3148215008274
77.0,-0.9942546716197348,-0.07350941487618445,-1.0239900227047503,-0.5176270251049254,-0.584308226020723,0.6479416266279174,962.3148215008274
78.0,-1.002623032512553,-0.07225048163907159,-1.0312585714684779,-0.510633134168269,-0.5856261773674829,0.638025613213066,962.3148215008274
79.0,-1.0106832785293915,-0.07110359835872111,-1.0382315496708125,-0.5033509681489552,-0.5866531348519544,0.6274870880824301,962.3148215008274
80.0,-1.0183052344759433,-0.0699508879597665,-1.0449230121576303,-0.49571651745028456,-0.5872039270950045,0.6164097150225812,962.3148215008274
81.0,-1.0254669030987258,-0.06876828191277665,-1.0512731512314553,-0.48773170779139274,-0.5873521288549527,0.6048297040694025,962.3148215008274
82.0,-1.0322652585536363,-0.06763734038504658,-1.0572469024415863,-0.4793710089045001,-0.5870645875010573,0.592609800559905,962.3148215008274
83.0,-1.0388417441791151,-0.06660842275042268,-1.062924514612486,-0.47081930147595563,-0.5863089739640366,0.5798918795924275,962.3148215008274
84.0,-1.0452654172640787,-0.06555494185781023,-1.068334504748241,-0.46213751575228873,-0.5854781302523232,0.5666192157717541,962.3148215008274
85.0,-1.0515204236525222,-0.06441700063445144,-1.07337081996574,-0.45320060520136024,-0.5846067607351975,0.5527870980109453,962.3148215008274
86.0,-1.0574853486004008,-0.06328458396236661,-1.0780979111149065,-0.4442110886664313,-0.583620189532922,0.538602276320787,962.3148215008274
87.0,-1.0630457976671324,-0.06215840389677383,-1.0826072220258514,-0.4352402467309538,-0.5821484303905752,0.5241982019761349,962.3148215008274
88.0,-1.0681842969556024,-0.0611749958546625,-1.0868359636578453,-0.42647881401051974,-0.5800611613941585,0.5097022703938549,962.3148215008274
89.0,-1.0728908141072775,-0.060329739019448436,-1.0906527711354204,-0.41806622322532444,-0.5775020677053925,0.49526222983715623,962.3148215008274
90.0,-1.0773450051229734,-0.05958766929106986,-1.094115414756667,-0.4101445032346056,-0.5745614142681251,0.4806776930481243,962.3148215008274
91.0,-1.0815890276829891,-0.05891062712224029,-1.0972348138474532,-0.40242357095399733,-0.5717831034114702,0.4660465113603577,962.3148215008274
92.0,-1.0856720277798153,-0.05818400966419561,-1.1000588206309252,-0.3951852887440133,-0.5690166193791394,0.45145386996329356,962.3148215008274
93.0,-1.0896124863283976,-0.057565615925032794,-1.1024673537936711,-0.3884232307525217,-0.5663325066316014,0.43669669984365034,962.3148215008274
94.0,-1.0933452784139195,-0.05699446955595342,-1.1045752703097138,-0.38220327677230403,-0.5637498836852113,0.4218170177109798,962.3148215008274
95.0,-1.096857962427049,-0.056471295102475255,-1.1064200583863488,-0.37627998327299894,-0.56125415460022,0.40696360704599827,962.3148215008274
96.0,-1.100109687481545,-0.05610892180715333,-1.107954784421963,-0.3705083045502219,-0.5589280862513816,0.392122363872794,962.3148215008274
97.0,-1.1030600362958418,-0.05574618389448963,-1.109186270494746,-0.36502115300586824,-0.556341950690598,0.3775208883197658,962.3148215008274
98.0,-1.1055865942045633,-0.055523995685603296,-1.1101407285086842,-0.35996843935881245,-0.5538209450028485,0.36316304385551285,962.3148215008274
99.0,-1.1075694798892988,-0.055286688995333934,-1.1108736062248463,-0.35515323628661205,-0.5512801357090097,0.34885833175812536,962.3148215008274
100.0,-1.109022687532344,-0.05516215974534098,-1.1113595927525561,-0.35032694966198585,-0.548934614425029,0.33440277012897457,962.3148215008274
101.0,-1.1101102430569099,-0.055025407616699544,-1.1116751343225357,-0.3456633074585297,-0.5465287648680336,0.3198825323856772,962.3148215008274
102.0,-1.1109847199686418,-0.05489664574918167,-1.1119319819555973,-0.3410801834430109,-0.5438746695319933,0.30549142883361957,962.3148215008274
103.0,-1.1116947538084458,-0.05479773332485562,-1.112051364179737,-0.33690443466698544,-0.5411655200335582,0.2910707580253322,962.3148215008274
104.0,-1.1121880347152149,-0.05490975887604557,-1.112135075533046,-0.33293836371471847,-0.5387712453170933,0.27665182026181384,962.3148215008274
105.0,-1.1125478832941544,-0.05509789526336214,-1.112103964376893,-0.3293348950255099,-0.5360769809673066,0.2623702747802845,962.3148215008274
106.0,-1.1128623822224075,-0.05543998565512124,-1.1118916938917671,-0.3260874009322066,-0.5335314499015268,0.24819412783342992,962.3148215008274
107.0,-1.1131416256868107,-0.05584243199357329,-1.1117317368439,-0.32298625048648266,-0.5310299615784584,0.23406026799817284,962.3148215008274
108.0,-1.1133979467424355,-0.05624973166836626,-1.1118267672023956,-0.32014583948909847,-0.5285195568391683,0.21981888173452924,962.3148215008274
109.0,-1.1136094745095053,-0.056567988004134345,-1.1119826388990963,-0.3177448678129978,-0.5258942013954848,0.2056621636148443,962.3148215008274
110.0,-1.113958548667595,-0.056905817594241806,-1.1121501524979978,-0.31562605045868175,-0.5232262989267694,0.19154395453095308,962.3148215008274
111.0,-1.114439498154465,-0.05722666231980816,-1.1123904088948122,-0.31406243252798016,-0.5209714787624792,0.17734923052251564,962.3148215008274
112.0,-1.115036237622502,-0.05751757140369398,-1.112540887968462,-0.3130103080179959,-0.5191473144657189,0.16309143296887688,962.3148215008274
113.0,-1.1157184643418492,-0.05771210144992617,-1.1124166711227828,-0.3122791329070173,-0.5178847645603581,0.14894085684332115,962.3148215008274
114.0,-1.1163718916754672,-0.057936191045164176,-1.112046895419038,-0.31192200524883484,-0.5171376190654124,0.13511323521898563,962.3148215008274
115.0,-1.1168054982402469,-0.058138137539141335,-1.1113652065254487,-0.31191852996328223,-0.5166244747521628,0.12164088667484424,962.3148215008274
116.0,-1.1169589512811942,-0.058376228220507025,-1.1105838464664617,-0.3121162233445375,-0.5161094913802166,0.10849388207293026,962.3148215008274
117.0,-1.1169092067384567,-0.058651645145259244,-1.1097552076671622,-0.31254257667512,-0.5155974097027171,0.0956963756067797,962.3148215008274
118.0,-1.1167173082384547,-0.05895633821771659,-1.1090850659515454,-0.313293336005422,-0.5150575807335998,0.08316944158884562,962.3148215008274
119.0,-1.11643486736367,-0.059247113150636625,-1.1086179528671305,-0.3142390332085876,-0.5146820085700918,0.07093497767307094,962.3148215008274
120.0,-1.1161632414001654,-0.05951688881132596,-1.1083085746034977,-0.31534788357735477,-0.5145196772421023,0.0591956456653269,962.3148215008274
121.0,-1.1160135175356383,-0.059795989583197005,-1.1080645420561381,-0.3164640826373203,-0.5146269906153409,0.047521490825463385,962.3148215008274
122.0,-1.1161123836640678,-0.060022674903526196,-1.1078913942702726,-0.3174064934325865,-0.5148666034559906,0.035951135528718876,962.3148215008274
123.0,-1.1164540943475574,-0.06019333687198352,-1.1076166109560783,-0.31822722746234233,-0.5149756304173382,0.024648391428651564,962.3148215008274
124.0,-1.1169028545597857,-0.060467783649827106,-1.1072208619386854,-0.3188018398059144,-0.5151518242266311,0.013540269380691685,962.3148215008274
125.0,-1.117403700991595,-0.06072770036352824,-1.1068888143534497,-0.3194281984243974,-0.5150599173996923,0.0028652211241215093,962.3148215008274
126.0,-1.117850635891874,-0.06099734640249963,-1.106417158368355,-0.3199068346706213,-0.5149043734671725,-0.007570484204149503,962.3148215008274
127.0,-1.118032162980564,-0.061194213176582156,-1.1058804117956202,-0.3202948228068276,-0.5148681847472295,-0.017795328288276582,962.3148215008274
128.0,-1.1179663722669737,-0.06140277493134149,-1.105346236141412,-0.3206532330995345,-0.5145601755754646,-0.027665470181717583,962.3148215008274
129.0,-1.1177247655411482,-0.061642950854233665,-1.1048248445990794,-0.32111331997316345,-0.5138952966430057,-0.03728355700162804,962.3148215008274
130.0,-1.1174287678513621,-0.061894075700244196,-1.1043370269474098,-0.32152576834686863,-0.513263124516605,-0.04649298796176178,962.3148215008274
131.0,-1.1172665635206396,-0.06209370470033245,-1.103804240872245,-0.3219102612370887,-0.5129405139901968,-0.05525872933746803,962.3148215008274
132.0,-1.1173330320455255,-0.06226762184005104,-1.1034475549562093,-0.32232224813194954,-0.5128891671100396,-0.06369230778845986,962.3148215008274
133.0,-1.1175738795094468,-0.06244339536708013,-1.103382378718651,-0.3228648216469179,-0.5128439633520682,-0.07180104820749386,962.3148215008274
134.0,-1.1178692437022868,-0.06257098820886779,-1.1034186342480043,-0.32314317992704716,-0.513090734255767,-0.07967525552030458,962.3148215008274
135.0,-1.1182022189199163,-0.06269074979229147,-1.1034445832849775,-0.3233091327534934,-0.5131357222822546,-0.08730545219370678,962.3148215008274
136.0,-1.1184471428494431,-0.06288229837314509,-1.103469259059353,-0.32352558477793053,-0.5130691072874378,-0.09457285420549288,962.3148215008274
137.0,-1.1185603000596676,-0.06307695786644538,-1.1034307142811948,-0.32391740248412404,-0.5129267191369551,-0.10145395050934053,962.3148215008274
138.0,-1.1185401800440808,-0.06325377136611109,-1.1031794083101947,-0.32465745155917886,-0.5129272608074087,-0.1077661874774894,962.3148215008274
139.0,-1.118440209918774,-0.06332397266943846,-1.1028010555443808,-0.3254297199512114,-0.5129871592712848,-0.11347880957542128,962.3148215008274
140.0,-1.1182421561967004,-0.06349794937836928,-1.1023881838728142,-0.32581661280804936,-0.5133412238974718,-0.11874199159238784,962.3148215008274
141.0,-1.1178777588580417,-0.0636092340552902,-1.102002689300647,-0.32598904659395367,-0.5135802764074925,-0.12369851586424956,962.3148215008274
142.0,-1.1174253492537336,-0.06378960158618073,-1.1017018413684878,-0.32634012118121547,-0.5136230787334946,-0.12832545563386977,962.3148215008274
143.0,-1.1168835268867499,-0.06408586955389733,-1.1015471584551977,-0.32660968152668546,-0.5137790666211524,-0.13291974424960198,962.3148215008274
144.0,-1.1163100251761418,-0.06427934090941802,-1.1015425804440442,-0.3265669412434258,-0.5138551198413736,-0.137135364419177,962.3148215008274
145.0,-1.1158455486085064,-0.06439247134938118,-1.1015642221356425,-0.32648439355067604,-0.5136868646271855,-0.14105668460793555,962.3148215008274
146.0,-1.1154832934809016,-0.06452941529847175,-1.1015306227224835,-0.3263427775125266,-0.5133746597365139,-0.14489222094225762,962.3148215008274
147.0,-1.1152952980107322,-0.06460018778567057,-1.1016035508442814,-0.32614690870892576,-0.5127633203371036,-0.14835362946038114,962.3148215008274
148.0,-1.115299328055279,-0.06474402464967913,-1.1017834559809643,-0.3261437199570849,-0.5123607437034162,-0.15177682484713298,962.3148215008274
149.0,-1.1154326394848177,-0.06480237584813547,-1.1018671327714782,-0.32606270408881094,-0.5118018995698752,-0.15503937021751457,962.3148215008274
150.0,-1.1156565547750437,-0.06483503972376269,-1.1018379444521589,-0.3257307148352957,-0.5112960869220595,-0.1580931578838846,962.3148215008274
151.0,-1.1158572014376,-0.06482151796462667,-1.1018122542308746,-0.32563819378771597,-0.5109662985640591,-0.1608573587243461,962.3148215008274
152.0,-1.1163120779137992,-0.06493865710928484,-1.101674851303978,-0.32589616137265215,-0.5107681828389669,-0.16572867333349775,962.3148215008274
153.0,-1.1161661030756331,-0.06490457613328976,-1.1012694918666712,-0.32619819993898,-0.5106107427753461,-0.16987316914824974,962.3148215008274
154.0,-1.115646662164898,-0.06474731279229924,-1.1012885324127963,-0.3261577978529836,-0.5103173654267633,-0.17362790979783105,962.3148215008274
155.0,-1.1155877149108948,-0.06461889461365801,-1.1015483866226055,-0.32652682202630373,-0.5097217579702682,-0.1768218527357078,962.3148215008274
156.0,-1.1162466684671415,-0.06461332743554705,-1.1017625354346063,-0.3269476599544675,-0.5099789034905671,-0.17916568868219476,962.3148215008274
157.0,-1.1164696339706979,-0.06468841994177381,-1.1016957811255552,-0.32683870441239493,-0.5101977633740032,-0.18010513966034106,962.3148215008274
158.0,-1.1155096077502864,-0.0647030451060329,-1.101801089482397,-0.3264711855208606,-0.509322517383706,-0.18025296145693478,962.3148215008274
159.0,-1.1143222511985176,-0.06467661146177693,-1.102337549165089,-0.3257022661643113,-0.5078585666696391,-0.18049858930276388,962.3148215008274
160.0,-1.1140941460280056,-0.06474599684100323,-1.1035337528203681,-0.32484564587591785,-0.5066173099764835,-0.18053236171065792,962.3148215008274
161.0,-1.1147419488190506,-0.06498233692416373,-1.1046130572871473,-0.32343722784130347,-0.5051074662146733,-0.1804030289902686,962.3148215008274
162.0,-1.1154918009842698,-0.06494426945626798,-1.1048560821491389,-0.3217453307325406,-0.5036694518622135,-0.179742274566657,962.3148215008274
163.0,-1.1153384256478158,-0.06488919187211707,-1.1046095338572772,-0.32054644475195176,-0.5029473257102611,-0.17824109639920266,962.3148215008274
164.0,-1.1141028792313754,-0.06492414877614514,-1.104312618856924,-0.3194668655604966,-0.5023260223438137,-0.17627725623196025,962.3148215008274
165.0,-1.113420961696809,-0.06523124981788839,-1.1050676981040946,-0.3194818858394627,-0.5016768322927656,-0.17317021273739464,962.3148215008274
166.0,-1.1140304509357406,-0.06524659529727848,-1.1059540688923577,-0.3193954341595349,-0.5022432217035578,-0.16913255248732711,962.3148215008274
167.0,-1.1149565665025911,-0.06494245356403208,-1.106969965147032,-0.3196904598299697,-0.5022104392784558,-0.16559931818602297,962.3148215008274
168.0,-1.1145143377355047,-0.06480906690385635,-1.1067325750990569,-0.3195266668944385,-0.502447472348492,-0.161465646988686,962.3148215008274
169.0,-1.1120254003535823,-0.06488843252696308,-1.106050443585103,-0.31955291709988043,-0.5021625775404872,-0.15650691368591577,962.3148215008274
170.0,-1.110071578576156,-0.06527315327116974,-1.1057798544972208,-0.3186031818796544,-0.49995110523376773,-0.15356144450076342,962.3148215008274
171.0,-1.1111047201772275,-0.06550224154687596,-1.1065377126740927,-0.31831978622018925,-0.49840779295202464,-0.15427440948630466,962.3148215008274
172.0,-1.1160477038639633,-0.06503845975310803,-1.1077952782075255,-0.31815472942408446,-0.4977231179833403,-0.15614468704567633,962.3148215008274
173.0,-1.1226982181516965,-0.06406318104446573,-1.105620646859592,-0.31801910729690164,-0.49466226636877336,-0.1571394075734996,962.3148215008274
174.0,-1.126649716072201,-0.06291490948507385,-1.1024385747175491,-0.31699869447986323,-0.4946575279567597,-0.15820460914218915,962.3148215008274
175.0,-1.1239505746642602,-0.0618796645657808,-1.0982492586194297,-0.31977366045804123,-0.4970671060834926,-0.15847657064250972,962.3148215008274
176.0,-1.1138090544612036,-0.061608679493973806,-1.0972305854214612,-0.32372636634842605,-0.5027820121246827,-0.16040068126345675,962.3148215008274
